;FLAVOR:Marlin
;TIME:12315
;Filament used: 7.95613m
;Layer height: 0.2
;MINX:80.268
;MINY:77.902
;MINZ:0.3
;MAXX:280.092
;MAXY:261.826
;MAXZ:17
;Generated with Cura_SteamEngine 4.9.1
M140 S60
M105
M190 S60
M104 S200
M105
M109 S200
M82 ;absolute extrusion mode
G28 ;Home
G1 Z15.0 F2000 ;Move the platform
G92 E0
G92 E0
G1 F1500 E-6.5
;LAYER_COUNT:59
;LAYER:0
M107
M204 S1000
G0 F7500 X157.283 Y84.629 Z0.3
;TYPE:SKIRT
G1 F1500 E0
G1 X157.548 Y84.181 E0.02597
G1 X158.001 Y83.47 E0.06803
G1 X158.458 Y82.826 E0.10743
G1 X158.777 Y82.448 E0.1321
G1 X159.335 Y81.827 E0.17375
G1 X159.843 Y81.311 E0.20988
G1 X160.323 Y80.901 E0.24137
G1 X160.965 Y80.395 E0.28215
G1 X161.609 Y79.938 E0.32155
G1 X162.027 Y79.69 E0.3458
G1 X162.758 Y79.287 E0.38744
G1 X163.468 Y78.942 E0.42683
G1 X163.96 Y78.751 E0.45316
G1 X164.756 Y78.474 E0.49521
G1 X165.325 Y78.3 E0.52489
G1 X166.042 Y78.145 E0.56149
G1 X166.845 Y78.01 E0.60211
G1 X167.629 Y77.919 E0.64149
G1 X168.138 Y77.902 E0.6669
G1 X168.975 Y77.902 E0.70866
G1 X169.509 Y77.92 E0.73531
G1 X170.307 Y78.015 E0.77541
G1 X171.13 Y78.156 E0.81706
G1 X171.901 Y78.329 E0.85649
G1 X172.405 Y78.487 E0.88284
G1 X173.197 Y78.766 E0.92473
G1 X173.927 Y79.066 E0.96411
G1 X174.38 Y79.297 E0.98947
G1 X175.116 Y79.704 E1.03143
G1 X175.468 Y79.923 E1.05212
G1 X176.442 Y79.707 E1.10189
G1 X176.869 Y79.625 E1.12358
G1 X177.003 Y79.603 E1.13036
G1 X177.646 Y79.525 E1.16267
G1 X181.377 Y79.227 E1.34941
G1 X182.24 Y79.206 E1.39247
G1 X182.577 Y79.219 E1.4093
G1 X186.191 Y79.428 E1.5899
G1 X186.784 Y79.485 E1.61962
G1 X186.91 Y79.502 E1.62597
G1 X187.388 Y79.582 E1.65015
G1 X190.928 Y80.286 E1.83022
G1 X191.203 Y80.346 E1.84426
G1 X191.334 Y80.377 E1.85098
G1 X192.1 Y80.6 E1.89078
G1 X195.646 Y81.833 E2.07808
G1 X196.246 Y82.069 E2.11024
G1 X196.352 Y82.116 E2.11603
G1 X196.741 Y82.302 E2.13754
G1 X199.956 Y83.946 E2.31769
G1 X200.311 Y84.139 E2.33785
G1 X200.432 Y84.209 E2.34483
G1 X201.003 Y84.574 E2.37864
G1 X204.07 Y86.724 E2.5655
G1 X204.639 Y87.163 E2.60136
G1 X204.738 Y87.247 E2.60783
G1 X205.007 Y87.486 E2.62579
G1 X207.644 Y89.941 E2.80553
G1 X207.962 Y90.254 E2.8278
G1 X208.053 Y90.349 E2.83436
G1 X208.47 Y90.822 E2.86582
G1 X210.753 Y93.628 E3.04629
G1 X211.062 Y94.034 E3.07175
G1 X211.214 Y94.248 E3.08484
G1 X211.525 Y94.722 E3.11313
G1 X213.396 Y97.809 E3.29322
G1 X213.666 Y98.292 E3.32082
G1 X213.725 Y98.407 E3.32727
G1 X213.949 Y98.882 E3.35347
G1 X215.379 Y102.203 E3.53386
G1 X215.481 Y102.452 E3.54729
G1 X215.529 Y102.575 E3.55388
G1 X215.784 Y103.344 E3.5943
G1 X216.743 Y106.834 E3.77487
G1 X216.876 Y107.401 E3.80392
G1 X216.943 Y107.743 E3.82131
G1 X217.023 Y108.23 E3.84593
G1 X217.493 Y111.82 E4.02656
G1 X217.559 Y112.893 E4.0802
G1 X217.531 Y116.533 E4.2618
G1 X217.518 Y116.927 E4.28147
G1 X217.503 Y117.184 E4.29431
G1 X217.432 Y117.87 E4.32872
G1 X216.904 Y121.443 E4.50892
G1 X216.813 Y121.945 E4.53437
G1 X216.782 Y122.089 E4.54172
G1 X216.642 Y122.64 E4.57008
G1 X215.629 Y126.097 E4.7498
G1 X215.478 Y126.56 E4.7741
G1 X215.39 Y126.803 E4.78699
G1 X215.169 Y127.348 E4.81633
G1 X213.688 Y130.639 E4.99638
G1 X213.445 Y131.133 E5.02385
G1 X213.381 Y131.252 E5.03059
G1 X213.112 Y131.712 E5.05718
G1 X211.188 Y134.769 E5.23738
G1 X211.026 Y135.017 E5.25216
G1 X210.946 Y135.134 E5.25923
G1 X210.475 Y135.753 E5.29804
G1 X208.044 Y138.642 E5.48641
G1 X207.291 Y139.42 E5.54043
G1 X204.454 Y141.971 E5.73077
G1 X203.608 Y142.633 E5.78436
G1 X200.484 Y144.745 E5.9725
G1 X199.782 Y145.167 E6.01336
G1 X199.446 Y145.341 E6.03224
G1 X196.194 Y146.938 E6.21299
G1 X195.742 Y147.143 E6.23775
G1 X195.631 Y147.189 E6.24374
G1 X195.084 Y147.392 E6.27285
G1 X191.645 Y148.524 E6.45348
G1 X191.126 Y148.675 E6.48045
G1 X190.878 Y148.738 E6.49321
G1 X190.354 Y148.852 E6.51997
G1 X186.791 Y149.5 E6.70064
G1 X186.159 Y149.589 E6.73248
G1 X186.037 Y149.601 E6.7386
G1 X185.595 Y149.631 E6.7607
G1 X182.631 Y149.753 E6.9087
G1 X182.63 Y150.246 E6.9333
G1 X185.605 Y150.369 E7.08185
G1 X186.209 Y150.417 E7.11208
G1 X186.326 Y150.431 E7.11795
G1 X186.789 Y150.501 E7.14132
G1 X190.357 Y151.147 E7.32222
G1 X190.969 Y151.283 E7.3535
G1 X191.21 Y151.347 E7.36594
G1 X191.647 Y151.477 E7.38868
G1 X195.08 Y152.607 E7.569
G1 X195.662 Y152.825 E7.6
G1 X195.781 Y152.875 E7.60644
G1 X196.196 Y153.063 E7.62917
G1 X199.445 Y154.657 E7.80972
G1 X199.757 Y154.819 E7.82726
G1 X199.872 Y154.882 E7.8338
G1 X200.493 Y155.261 E7.8701
G1 X203.605 Y157.365 E8.05751
G1 X204.229 Y157.835 E8.09649
G1 X204.313 Y157.905 E8.10194
G1 X204.536 Y158.098 E8.11665
G1 X207.224 Y160.516 E8.29703
G1 X207.463 Y160.74 E8.31338
G1 X207.556 Y160.831 E8.31987
G1 X208.07 Y161.385 E8.35757
G1 X210.402 Y164.157 E8.5383
G1 X210.706 Y164.542 E8.56277
G1 X210.859 Y164.749 E8.57561
G1 X211.188 Y165.231 E8.60473
G1 X213.109 Y168.284 E8.78469
G1 X213.325 Y168.65 E8.80589
G1 X213.395 Y168.776 E8.81308
G1 X213.692 Y169.368 E8.84612
G1 X215.224 Y172.782 E9.03281
G1 X215.28 Y172.913 E9.03992
G1 X215.594 Y173.787 E9.08625
G1 X216.608 Y177.249 E9.26623
G1 X216.678 Y177.507 E9.27956
G1 X216.743 Y177.761 E9.29264
G1 X216.904 Y178.558 E9.33321
G1 X217.43 Y182.127 E9.51319
G1 X217.472 Y182.454 E9.52964
G1 X217.527 Y183.31 E9.57243
G1 X217.56 Y186.938 E9.75344
G1 X217.554 Y187.311 E9.77205
G1 X217.544 Y187.569 E9.78494
G1 X217.484 Y188.28 E9.82053
G1 X217.015 Y191.862 E10.00077
G1 X216.946 Y192.293 E10.02254
G1 X216.92 Y192.431 E10.02955
G1 X216.776 Y193.053 E10.0614
G1 X215.82 Y196.533 E10.24145
G1 X215.674 Y197.006 E10.26615
G1 X215.59 Y197.25 E10.27902
G1 X215.38 Y197.793 E10.30807
G1 X213.955 Y201.106 E10.48799
G1 X213.745 Y201.555 E10.51272
G1 X213.679 Y201.685 E10.52
G1 X213.393 Y202.199 E10.54934
G1 X211.523 Y205.282 E10.72924
G1 X211.333 Y205.583 E10.747
G1 X210.831 Y206.274 E10.78961
G1 X208.553 Y209.073 E10.96965
G1 X208.267 Y209.411 E10.99174
G1 X207.651 Y210.052 E11.0361
G1 X205.003 Y212.516 E11.21655
G1 X204.757 Y212.736 E11.23302
G1 X204.654 Y212.824 E11.23978
G1 X204.062 Y213.283 E11.27715
G1 X200.988 Y215.436 E11.46439
G1 X200.34 Y215.844 E11.50259
G1 X200.237 Y215.902 E11.50849
G1 X199.962 Y216.049 E11.52404
G1 X196.748 Y217.693 E11.70415
G1 X196.424 Y217.85 E11.72211
G1 X196.303 Y217.905 E11.72874
G1 X195.632 Y218.173 E11.76479
G1 X192.085 Y219.404 E11.95211
G1 X191.233 Y219.646 E11.99629
G1 X190.926 Y219.713 E12.01197
G1 X187.379 Y220.419 E12.1924
G1 X186.823 Y220.509 E12.2205
G1 X186.703 Y220.524 E12.22654
G1 X186.187 Y220.571 E12.25239
G1 X182.578 Y220.78 E12.43274
G1 X182.265 Y220.793 E12.44837
G1 X181.363 Y220.773 E12.49338
G1 X177.628 Y220.473 E12.68032
G1 X176.661 Y220.334 E12.72906
G1 X176.347 Y220.268 E12.74507
G1 X175.483 Y220.076 E12.78923
G1 X175.1 Y220.305 E12.81149
G1 X174.35 Y220.718 E12.8542
G1 X173.64 Y221.063 E12.89359
G1 X173.141 Y221.255 E12.92026
G1 X172.347 Y221.53 E12.96218
G1 X171.588 Y221.751 E13.00162
G1 X171.106 Y221.849 E13.02616
G1 X170.303 Y221.986 E13.0668
G1 X169.519 Y222.079 E13.10619
G1 X168.991 Y222.097 E13.13255
G1 X168.141 Y222.097 E13.17495
G1 X167.607 Y222.079 E13.20161
G1 X166.824 Y221.987 E13.24094
G1 X166.015 Y221.85 E13.28188
G1 X165.244 Y221.678 E13.32129
G1 X164.734 Y221.519 E13.34794
G1 X163.939 Y221.24 E13.38998
G1 X163.208 Y220.941 E13.42938
G1 X162.761 Y220.713 E13.45441
G1 X162.027 Y220.309 E13.49621
G1 X161.355 Y219.894 E13.53562
G1 X160.954 Y219.598 E13.56048
G1 X160.317 Y219.095 E13.60098
G1 X159.829 Y218.676 E13.63307
G1 X159.335 Y218.173 E13.66824
G1 X158.777 Y217.552 E13.70989
G1 X158.28 Y216.939 E13.74926
G1 X158.001 Y216.53 E13.77396
G1 X157.548 Y215.819 E13.81602
G1 X157.158 Y215.133 E13.85539
G1 X156.939 Y214.66 E13.8814
G1 X156.623 Y213.911 E13.92195
G1 X156.354 Y213.169 E13.96133
G1 X156.219 Y212.671 E13.98707
G1 X156.024 Y211.845 E14.02941
G1 X155.881 Y211.068 E14.06883
G1 X155.832 Y210.561 E14.09424
G1 X155.778 Y209.733 E14.13564
G1 X155.761 Y209.209 E14.1618
G1 X155.787 Y208.713 E14.18657
G1 X155.089 Y207.953 E14.23806
G1 X154.424 Y207.122 E14.29116
G1 X152.291 Y204.046 E14.4779
G1 X151.748 Y203.136 E14.53077
G1 X150.051 Y199.798 E14.71759
G1 X149.635 Y198.819 E14.77066
G1 X148.407 Y195.278 E14.95764
G1 X148.128 Y194.255 E15.01055
G1 X147.393 Y190.587 E15.19718
G1 X147.256 Y189.534 E15.25016
G1 X147.025 Y185.788 E15.4374
G1 X147.032 Y184.723 E15.49054
G1 X147.312 Y181.002 E15.6767
G1 X147.463 Y179.952 E15.72963
G1 X148.25 Y176.281 E15.91693
G1 X148.542 Y175.263 E15.96977
G1 X149.815 Y171.744 E16.15647
G1 X150.245 Y170.769 E16.20963
G1 X151.985 Y167.457 E16.39628
G1 X152.539 Y166.556 E16.44905
G1 X154.707 Y163.516 E16.63534
G1 X155.385 Y162.692 E16.68857
G1 X157.962 Y159.961 E16.8759
G1 X158.74 Y159.241 E16.92879
G1 X161.652 Y156.894 E17.11538
G1 X162.466 Y156.325 E17.16493
G1 X162.365 Y155.726 E17.19524
G1 X162.269 Y154.867 E17.23836
G1 X162.022 Y150.427 E17.46022
G1 X162.022 Y149.559 E17.50352
G1 X162.27 Y145.121 E17.72528
G1 X162.366 Y144.264 E17.7683
G1 X162.465 Y143.674 E17.79815
G1 X161.65 Y143.104 E17.84777
G1 X158.729 Y140.748 E18.03499
G1 X157.951 Y140.029 E18.08784
G1 X155.383 Y137.306 E18.27458
G1 X154.708 Y136.484 E18.32764
G1 X152.54 Y133.445 E18.51389
G1 X151.984 Y132.541 E18.56683
G1 X150.237 Y129.214 E18.75431
G1 X149.807 Y128.237 E18.80757
G1 X148.538 Y124.723 E18.99396
G1 X148.247 Y123.705 E19.04678
G1 X147.461 Y120.03 E19.23428
G1 X147.31 Y118.98 E19.2872
G1 X147.032 Y115.259 E19.47336
G1 X147.025 Y114.194 E19.52649
G1 X147.258 Y110.448 E19.71374
G1 X147.396 Y109.396 E19.76668
G1 X148.132 Y105.731 E19.95317
G1 X148.409 Y104.712 E20.00586
G1 X149.632 Y101.185 E20.1921
G1 X150.049 Y100.206 E20.24519
G1 X151.746 Y96.867 E20.43205
G1 X152.29 Y95.955 E20.48503
G1 X154.427 Y92.875 E20.67206
G1 X155.088 Y92.048 E20.72488
G1 X155.786 Y91.287 E20.77639
G1 X155.761 Y90.812 E20.80012
G1 X155.776 Y90.301 E20.82563
G1 X155.828 Y89.472 E20.86707
G1 X155.863 Y89.081 E20.88665
G1 X156.026 Y88.14 E20.9343
G1 X156.221 Y87.319 E20.9764
G1 X156.442 Y86.56 E21.01584
G1 X156.623 Y86.089 E21.04101
G1 X156.939 Y85.34 E21.08157
G1 X157.283 Y84.629 E21.12098
G0 F7500 X157.643 Y84.803
G1 F1500 X157.885 Y84.396 E21.1446
G1 X158.338 Y83.685 E21.18666
G1 X158.785 Y83.058 E21.22508
G1 X159.075 Y82.715 E21.24748
G1 X159.633 Y82.094 E21.28914
G1 X160.116 Y81.604 E21.32346
G1 X160.57 Y81.215 E21.35329
G1 X161.212 Y80.709 E21.39407
G1 X161.84 Y80.265 E21.43244
G1 X162.22 Y80.041 E21.45445
G1 X162.951 Y79.638 E21.49609
G1 X163.643 Y79.302 E21.53447
G1 X164.092 Y79.129 E21.55848
G1 X164.888 Y78.852 E21.60053
G1 X165.428 Y78.687 E21.6287
G1 X166.108 Y78.539 E21.66342
G1 X166.911 Y78.404 E21.70404
G1 X167.675 Y78.316 E21.74241
G1 X168.138 Y78.302 E21.76552
G1 X168.975 Y78.302 E21.80728
G1 X169.482 Y78.319 E21.83259
G1 X170.24 Y78.409 E21.87067
G1 X171.063 Y78.55 E21.91233
G1 X171.813 Y78.719 E21.95068
G1 X172.272 Y78.864 E21.9747
G1 X173.064 Y79.143 E22.01659
G1 X173.775 Y79.436 E22.05496
G1 X174.186 Y79.647 E22.078
G1 X174.922 Y80.054 E22.11996
G1 X175.396 Y80.35 E22.14784
G1 X176.529 Y80.098 E22.20575
G1 X176.934 Y80.02 E22.22633
G1 X177.068 Y79.998 E22.2331
G1 X177.678 Y79.923 E22.26377
G1 X181.409 Y79.625 E22.4505
G1 X182.227 Y79.606 E22.49132
G1 X182.554 Y79.618 E22.50764
G1 X186.168 Y79.827 E22.68825
G1 X186.73 Y79.881 E22.71642
G1 X186.856 Y79.898 E22.72276
G1 X187.31 Y79.974 E22.74573
G1 X190.85 Y80.678 E22.9258
G1 X191.111 Y80.735 E22.93912
G1 X191.242 Y80.766 E22.94584
G1 X191.968 Y80.977 E22.98356
G1 X195.514 Y82.21 E23.17086
G1 X196.084 Y82.435 E23.20143
G1 X196.19 Y82.482 E23.20722
G1 X196.559 Y82.658 E23.22761
G1 X199.774 Y84.302 E23.40776
G1 X200.111 Y84.486 E23.42692
G1 X200.232 Y84.556 E23.43389
G1 X200.774 Y84.902 E23.46597
G1 X203.841 Y87.052 E23.65284
G1 X204.381 Y87.468 E23.68685
G1 X204.48 Y87.552 E23.69332
G1 X204.734 Y87.779 E23.71032
G1 X207.371 Y90.234 E23.89007
G1 X207.673 Y90.531 E23.9112
G1 X207.764 Y90.626 E23.91776
G1 X208.16 Y91.075 E23.94763
G1 X210.443 Y93.881 E24.12811
G1 X210.736 Y94.266 E24.15224
G1 X210.888 Y94.48 E24.16534
G1 X211.183 Y94.929 E24.19214
G1 X213.054 Y98.016 E24.37223
G1 X213.31 Y98.474 E24.39841
G1 X213.369 Y98.589 E24.40486
G1 X213.582 Y99.04 E24.42974
G1 X215.012 Y102.361 E24.61013
G1 X215.109 Y102.598 E24.62291
G1 X215.157 Y102.721 E24.6295
G1 X215.399 Y103.45 E24.66782
G1 X216.358 Y106.94 E24.84839
G1 X216.484 Y107.478 E24.87596
G1 X216.551 Y107.82 E24.89334
G1 X216.626 Y108.282 E24.91669
G1 X217.096 Y111.872 E25.09733
G1 X217.159 Y112.89 E25.14821
G1 X217.131 Y116.53 E25.32982
G1 X217.118 Y116.904 E25.34849
G1 X217.103 Y117.161 E25.36133
G1 X217.037 Y117.812 E25.39398
G1 X216.509 Y121.385 E25.57417
G1 X216.422 Y121.86 E25.59826
G1 X216.391 Y122.004 E25.60561
G1 X216.258 Y122.528 E25.63258
G1 X215.245 Y125.985 E25.81231
G1 X215.102 Y126.424 E25.83534
G1 X215.014 Y126.667 E25.84824
G1 X214.804 Y127.184 E25.87608
G1 X213.323 Y130.475 E26.05612
G1 X213.092 Y130.943 E26.08216
G1 X213.028 Y131.062 E26.0889
G1 X212.774 Y131.499 E26.11412
G1 X210.85 Y134.556 E26.29433
G1 X210.696 Y134.791 E26.30834
G1 X210.616 Y134.908 E26.31542
G1 X210.169 Y135.495 E26.35223
G1 X207.738 Y138.384 E26.5406
G1 X207.024 Y139.123 E26.59186
G1 X204.187 Y141.674 E26.78221
G1 X203.384 Y142.301 E26.83303
G1 X200.26 Y144.413 E27.02117
G1 X199.594 Y144.814 E27.05995
G1 X199.27 Y144.982 E27.07816
G1 X196.018 Y146.579 E27.25891
G1 X195.589 Y146.773 E27.2824
G1 X195.478 Y146.819 E27.28839
G1 X194.959 Y147.012 E27.31602
G1 X191.52 Y148.144 E27.49665
G1 X191.028 Y148.287 E27.52221
G1 X190.78 Y148.35 E27.53498
G1 X190.282 Y148.459 E27.56041
G1 X186.719 Y149.107 E27.74108
G1 X186.119 Y149.19 E27.7713
G1 X185.997 Y149.202 E27.77742
G1 X185.578 Y149.232 E27.79838
G1 X182.248 Y149.369 E27.96465
G1 X182.217 Y150.002 E27.99627
G1 X182.248 Y150.63 E28.02764
G1 X185.588 Y150.768 E28.19441
G1 X186.161 Y150.814 E28.22309
G1 X186.278 Y150.828 E28.22897
G1 X186.717 Y150.894 E28.25112
G1 X190.285 Y151.54 E28.43202
G1 X190.866 Y151.67 E28.46173
G1 X191.107 Y151.734 E28.47417
G1 X191.522 Y151.857 E28.49576
G1 X194.955 Y152.987 E28.67607
G1 X195.507 Y153.194 E28.70549
G1 X195.626 Y153.244 E28.71193
G1 X196.019 Y153.422 E28.73345
G1 X199.268 Y155.016 E28.914
G1 X199.564 Y155.17 E28.93065
G1 X199.679 Y155.233 E28.93719
G1 X200.269 Y155.593 E28.97167
G1 X203.381 Y157.697 E29.15908
G1 X203.973 Y158.142 E29.19603
G1 X204.269 Y158.395 E29.21546
G1 X206.957 Y160.813 E29.39584
G1 X207.183 Y161.026 E29.41133
G1 X207.276 Y161.117 E29.41782
G1 X207.764 Y161.642 E29.45358
G1 X210.096 Y164.414 E29.63431
G1 X210.384 Y164.78 E29.65754
G1 X210.537 Y164.987 E29.67039
G1 X210.849 Y165.444 E29.69799
G1 X212.77 Y168.497 E29.87795
G1 X212.976 Y168.844 E29.89808
G1 X213.046 Y168.97 E29.90527
G1 X213.327 Y169.532 E29.93662
G1 X214.856 Y172.939 E30.12293
G1 X214.912 Y173.07 E30.13004
G1 X215.21 Y173.899 E30.17399
G1 X216.224 Y177.361 E30.35396
G1 X216.291 Y177.606 E30.36664
G1 X216.356 Y177.86 E30.37972
G1 X216.508 Y178.616 E30.41819
G1 X217.034 Y182.185 E30.59817
G1 X217.075 Y182.502 E30.61412
G1 X217.127 Y183.314 E30.65471
G1 X217.16 Y186.942 E30.83572
G1 X217.154 Y187.296 E30.85338
G1 X217.144 Y187.554 E30.86627
G1 X217.087 Y188.228 E30.90001
G1 X216.618 Y191.81 E31.08024
G1 X216.553 Y192.219 E31.1009
G1 X216.527 Y192.357 E31.10791
G1 X216.391 Y192.947 E31.13812
G1 X215.435 Y196.427 E31.31817
G1 X215.296 Y196.876 E31.34162
G1 X215.212 Y197.12 E31.35449
G1 X215.013 Y197.635 E31.38204
G1 X213.588 Y200.948 E31.56196
G1 X213.388 Y201.374 E31.58544
G1 X213.322 Y201.504 E31.59272
G1 X213.051 Y201.992 E31.62056
G1 X211.181 Y205.075 E31.80046
G1 X210.997 Y205.365 E31.81759
G1 X210.52 Y206.021 E31.85806
G1 X208.128 Y208.958 E32.04703
G1 X207.963 Y209.151 E32.0597
G1 X207.379 Y209.759 E32.10176
G1 X204.731 Y212.223 E32.28222
G1 X204.497 Y212.432 E32.29787
G1 X204.394 Y212.52 E32.30463
G1 X203.832 Y212.955 E32.34009
G1 X200.758 Y215.108 E32.52732
G1 X200.144 Y215.495 E32.56353
G1 X200.041 Y215.553 E32.56943
G1 X199.78 Y215.693 E32.58421
G1 X196.566 Y217.337 E32.76431
G1 X196.258 Y217.486 E32.78138
G1 X196.137 Y217.541 E32.78801
G1 X195.501 Y217.795 E32.82218
G1 X191.954 Y219.026 E33.0095
G1 X191.146 Y219.256 E33.05141
